flags/it-77.svg

<svg width="512" height="512" viewBox="0 0 512 512" fill="none" xmlns="http://www.w3.org/2000/svg">
<rect width="512" height="512" fill="var(--flag-palette-blue, #0052b4)"/>
<path d="M144 126V267V362C144 370.837 151.163 378 160 378H239.969C248.418 378 255.411 384.569 255.938 393.002L256 394L256.062 393.002C256.589 384.569 263.582 378 272.031 378H352C360.837 378 368 370.837 368 362V267V126H144Z" fill="var(--flag-palette-white, #eeeeee)"/>
<path d="M330.7 229.596C320.2 229.596 314.7 226.296 309.9 223.396C305.4 220.696 301.6 218.396 293.3 218.396C285 218.396 281.3 220.696 276.7 223.396C271.9 226.396 266.4 229.596 256 229.596C245.6 229.596 240.1 226.296 235.3 223.396C230.8 220.696 226.9 218.396 218.7 218.396C210.5 218.396 206.6 220.696 202.1 223.396C197.2 226.396 191.8 229.596 181.3 229.596C173.923 229.731 166.688 227.564 160.6 223.396C156.1 220.696 152.2 218.396 144 218.396L136 214.396L144 210.396C154.4 210.396 159.9 213.696 164.7 216.596C169.2 219.296 173.1 221.596 181.3 221.596C189.5 221.596 193.4 219.296 197.9 216.596C202.8 213.596 208.2 210.396 218.7 210.396C229.1 210.396 234.6 213.696 239.4 216.596C243.9 219.296 247.8 221.596 256 221.596C264.2 221.596 268.1 219.296 272.6 216.596C277.4 213.596 282.9 210.396 293.3 210.396C303.8 210.396 309.3 213.696 314.1 216.596C318.6 219.296 322.4 221.596 330.7 221.596C339 221.596 342.7 219.296 347.3 216.596C352.1 213.596 357.6 210.396 368 210.396L376 214.396L368 218.396C359.8 218.396 355.9 220.696 351.4 223.396C346.6 226.396 341.1 229.596 330.7 229.596ZM330.7 253.596C320.2 253.596 314.7 250.296 309.9 247.396C305.4 244.696 301.6 242.396 293.3 242.396C285 242.396 281.3 244.696 276.7 247.396C271.9 250.396 266.4 253.596 256 253.596C245.6 253.596 240.1 250.296 235.3 247.396C230.8 244.696 226.9 242.396 218.7 242.396C210.5 242.396 206.6 244.696 202.1 247.396C197.2 250.396 191.8 253.596 181.3 253.596C173.923 253.731 166.688 251.564 160.6 247.396C156.1 244.696 152.2 242.396 144 242.396L136 238.396L144 234.396C154.4 234.396 159.9 237.696 164.7 240.596C169.2 243.296 173.1 245.596 181.3 245.596C189.5 245.596 193.4 243.296 197.9 240.596C202.8 237.596 208.2 234.396 218.7 234.396C229.1 234.396 234.6 237.696 239.4 240.596C243.9 243.296 247.8 245.596 256 245.596C264.2 245.596 268.1 243.296 272.6 240.596C277.4 237.596 282.9 234.396 293.3 234.396C303.8 234.396 309.3 237.696 314.1 240.596C318.6 243.296 322.4 245.596 330.7 245.596C339 245.596 342.7 243.296 347.3 240.596C352.1 237.596 357.6 234.396 368 234.396L376 238.396L368 242.396C359.8 242.396 355.9 244.696 351.4 247.396C346.6 250.396 341.1 253.596 330.7 253.596ZM330.7 277.596C320.2 277.596 314.7 274.296 309.9 271.396C305.4 268.696 301.6 266.396 293.3 266.396C285 266.396 281.3 268.696 276.7 271.396C271.9 274.396 266.4 277.596 256 277.596C245.6 277.596 240.1 274.296 235.3 271.396C230.8 268.696 226.9 266.396 218.7 266.396C210.5 266.396 206.6 268.696 202.1 271.396C197.2 274.396 191.8 277.596 181.3 277.596C173.923 277.731 166.688 275.564 160.6 271.396C156.1 268.696 152.2 266.396 144 266.396L136 262.396L144 258.396C154.4 258.396 159.9 261.696 164.7 264.596C169.2 267.296 173.1 269.596 181.3 269.596C189.5 269.596 193.4 267.296 197.9 264.596C202.8 261.596 208.2 258.396 218.7 258.396C229.1 258.396 234.6 261.696 239.4 264.596C243.9 267.296 247.8 269.596 256 269.596C264.2 269.596 268.1 267.296 272.6 264.596C277.4 261.596 282.9 258.396 293.3 258.396C303.8 258.396 309.3 261.696 314.1 264.596C318.6 267.296 322.4 269.596 330.7 269.596C339 269.596 342.7 267.296 347.3 264.596C352.1 261.596 357.6 258.396 368 258.396L376 262.396L368 266.396C359.8 266.396 355.9 268.696 351.4 271.396C346.6 274.396 341.1 277.596 330.7 277.596ZM330.7 301.596C320.2 301.596 314.7 298.296 309.9 295.396C305.4 292.696 301.6 290.396 293.3 290.396C285 290.396 281.3 292.696 276.7 295.396C271.9 298.396 266.4 301.596 256 301.596C245.6 301.596 240.1 298.296 235.3 295.396C230.8 292.696 226.9 290.396 218.7 290.396C210.5 290.396 206.6 292.696 202.1 295.396C197.2 298.396 191.8 301.596 181.3 301.596C173.923 301.731 166.688 299.564 160.6 295.396C156.1 292.696 152.2 290.396 144 290.396L136 286.396L144 282.396C154.4 282.396 159.9 285.696 164.7 288.596C169.2 291.296 173.1 293.596 181.3 293.596C189.5 293.596 193.4 291.296 197.9 288.596C202.8 285.596 208.2 282.396 218.7 282.396C229.1 282.396 234.6 285.696 239.4 288.596C243.9 291.296 247.8 293.596 256 293.596C264.2 293.596 268.1 291.296 272.6 288.596C277.4 285.596 282.9 282.396 293.3 282.396C303.8 282.396 309.3 285.696 314.1 288.596C318.6 291.296 322.4 293.596 330.7 293.596C339 293.596 342.7 291.296 347.3 288.596C352.1 285.596 357.6 282.396 368 282.396L376 286.396L368 290.396C359.8 290.396 355.9 292.696 351.4 295.396C346.6 298.396 341.1 301.596 330.7 301.596Z" fill="var(--flag-palette-blue, #0052b4)"/>
</svg>

<svg xmlns="http://www.w3.org/2000/svg" width="512" height="512" fill="none"><path fill="var(--flag-palette-blue, #0052b4)" d="M0 0h512v512H0z"/><path fill="var(--flag-palette-white, #eeeeee)" d="M144 126v236a16 16 0 0 0 16 16h80a16 16 0 0 1 16 15v1-1a16 16 0 0 1 16-15h80a16 16 0 0 0 16-16V126z"/><path fill="var(--flag-palette-blue, #0052b4)" d="M330.7 229.6c-10.5 0-16-3.3-20.8-6.2-4.5-2.7-8.3-5-16.6-5s-12 2.3-16.6 5c-4.8 3-10.3 6.2-20.7 6.2a36 36 0 0 1-20.7-6.2c-4.5-2.7-8.4-5-16.6-5s-12.1 2.3-16.6 5c-4.9 3-10.3 6.2-20.8 6.2-7.4.1-14.6-2-20.7-6.2-4.5-2.7-8.4-5-16.6-5l-8-4 8-4c10.4 0 15.9 3.3 20.7 6.2 4.5 2.7 8.4 5 16.6 5s12.1-2.3 16.6-5c4.9-3 10.3-6.2 20.8-6.2s15.9 3.3 20.7 6.2c4.5 2.7 8.4 5 16.6 5s12.1-2.3 16.6-5c4.8-3 10.3-6.2 20.7-6.2 10.5 0 16 3.3 20.8 6.2 4.5 2.7 8.3 5 16.6 5s12-2.3 16.6-5c4.8-3 10.3-6.2 20.7-6.2l8 4-8 4c-8.2 0-12.1 2.3-16.6 5-4.8 3-10.3 6.2-20.7 6.2m0 24c-10.5 0-16-3.3-20.8-6.2-4.5-2.7-8.3-5-16.6-5s-12 2.3-16.6 5c-4.8 3-10.3 6.2-20.7 6.2a36 36 0 0 1-20.7-6.2c-4.5-2.7-8.4-5-16.6-5s-12.1 2.3-16.6 5c-4.9 3-10.3 6.2-20.8 6.2-7.4.1-14.6-2-20.7-6.2-4.5-2.7-8.4-5-16.6-5l-8-4 8-4c10.4 0 15.9 3.3 20.7 6.2 4.5 2.7 8.4 5 16.6 5s12.1-2.3 16.6-5c4.9-3 10.3-6.2 20.8-6.2s15.9 3.3 20.7 6.2c4.5 2.7 8.4 5 16.6 5s12.1-2.3 16.6-5c4.8-3 10.3-6.2 20.7-6.2 10.5 0 16 3.3 20.8 6.2 4.5 2.7 8.3 5 16.6 5s12-2.3 16.6-5c4.8-3 10.3-6.2 20.7-6.2l8 4-8 4c-8.2 0-12.1 2.3-16.6 5-4.8 3-10.3 6.2-20.7 6.2m0 24c-10.5 0-16-3.3-20.8-6.2-4.5-2.7-8.3-5-16.6-5s-12 2.3-16.6 5c-4.8 3-10.3 6.2-20.7 6.2a36 36 0 0 1-20.7-6.2c-4.5-2.7-8.4-5-16.6-5s-12.1 2.3-16.6 5c-4.9 3-10.3 6.2-20.8 6.2-7.4.1-14.6-2-20.7-6.2-4.5-2.7-8.4-5-16.6-5l-8-4 8-4c10.4 0 15.9 3.3 20.7 6.2 4.5 2.7 8.4 5 16.6 5s12.1-2.3 16.6-5c4.9-3 10.3-6.2 20.8-6.2s15.9 3.3 20.7 6.2c4.5 2.7 8.4 5 16.6 5s12.1-2.3 16.6-5c4.8-3 10.3-6.2 20.7-6.2 10.5 0 16 3.3 20.8 6.2 4.5 2.7 8.3 5 16.6 5s12-2.3 16.6-5c4.8-3 10.3-6.2 20.7-6.2l8 4-8 4c-8.2 0-12.1 2.3-16.6 5-4.8 3-10.3 6.2-20.7 6.2m0 24c-10.5 0-16-3.3-20.8-6.2-4.5-2.7-8.3-5-16.6-5s-12 2.3-16.6 5c-4.8 3-10.3 6.2-20.7 6.2a36 36 0 0 1-20.7-6.2c-4.5-2.7-8.4-5-16.6-5s-12.1 2.3-16.6 5c-4.9 3-10.3 6.2-20.8 6.2-7.4.1-14.6-2-20.7-6.2-4.5-2.7-8.4-5-16.6-5l-8-4 8-4c10.4 0 15.9 3.3 20.7 6.2 4.5 2.7 8.4 5 16.6 5s12.1-2.3 16.6-5c4.9-3 10.3-6.2 20.8-6.2s15.9 3.3 20.7 6.2c4.5 2.7 8.4 5 16.6 5s12.1-2.3 16.6-5c4.8-3 10.3-6.2 20.7-6.2 10.5 0 16 3.3 20.8 6.2 4.5 2.7 8.3 5 16.6 5s12-2.3 16.6-5c4.8-3 10.3-6.2 20.7-6.2l8 4-8 4c-8.2 0-12.1 2.3-16.6 5-4.8 3-10.3 6.2-20.7 6.2"/></svg>
